**kern	**kern	**dynam
*part1	*part1	*part1
*staff2	*staff1	*
*I"Piano	*	*
*clefF4	*clefG2	*
*k[f#]	*k[f#]	*
=1	=1	=1
*	*^	*
4D	(2f#	8dL	.
.	.	8A	.
4rGG	.	8F#<	.
.	.	8DJ<)	.
*	*v	*v	*
=	=	=
(4.AA' 4.F#	(4.d' 4.cc	.
8AA') 8F#	8d') 8cc	.
=	=	=
(4AA 4F#	(4d 4cc	.
4BB 4G	4d 4b	.
=	=	=
4C 4G	4e 4a	.
[4D	4d 4f# 4b	.
=	=	=
2GG) 2D] 2B	4d 4g	.
.	4d)	.
=	=	=
4.C#X 4.A	4.g 4.a 4.ee	<
8C# 8A	8g 8a 8ee	.
=	=	=
.	8qee/	.
*	*^	*
2C#X 2A	(4gg^	[2g 2a	.
.	8ff#L	.	.
.	8eeJ	.	.
=	=	=	=
*^	*	*	*
*	*^	*	*	*
*	*	*^	*	*	*
8BL	2D	8ryy	4B\	[2dd)	4g]	[
8d	.	4.d\	.	.	.	.
8b>	.	.	4cn\	.	4f#	.
8aJ>	.	.	.	.	.	.
*v	*v	*v	*v	*	*	*
*	*v	*v	*
=	=	=
!	!LO:TX:b:i:t=ritard.	!
2G; 2B	2g; 2dd]	.
==	==	==
*-	*-	*-
!!!system-decoration: {(s1,s2)}
!!!RDF**kern: > = above
!!!RDF**kern: < = below
